X:1
T:Immanuel’s Banner, 11.11.11.11 D
T:Immanuel’s Banner, 11.11.11.11 D
T:Amanda Motte, 1902
T:Public Domain Courtesy of the Cyber Hymnal™
C:Amanda Motte, 1902
Z:Public Domain
Z:Courtesy of the Cyber Hymnal™
%%score ( 1 2 ) ( 3 4 )
L:1/8
Q:1/4=100
M:4/4
K:G
V:1 treble 
V:2 treble 
V:3 bass 
V:4 bass 
V:1
 (DG) | [GB]2 [GB]>[Gc] [GB]2 ([GB][GA]) | [EG]2 [EG][EA] [EG]3 [CE] | %3
 [B,D]2 [DG][FA] [GB]2 [GB][Gd] | [Gd]2 [Fc][GB] [FA]2 (D[DG]) | [GB]2 [GB]>[Gc] [GB]2 ([GB][GA]) | %6
 [EG]2 [EG][EA] [EG]3 [CE] | D2 [DG][FA] [GB] [GB]2 [Gc] | [GB]2 [GB][FA] G3 G | %9
 [Ec]2 [Ec][Ec] [Ec] [Ge]2 [Ge] | [Ge]2 [Gd][G^c] [Gd]3 [GB] | [FA]2 [FA][GB] [Ac]2 [GB][FA] | %12
 [GB]2 [G^c][Gc] [Fd]2 D2 | [GB]2 [GB]>[Gc] [GB]2 [GB][GA] | [EG]2 [EG][EA] [EG]3 [CE] | %15
 D2 [DG][FA] [GB] [GB]2 [Gc] | [GB]2 [GB][FA] G3 |] %17
V:2
 D2 | x8 | x8 | x8 | x6 D x | x8 | x8 | D2 x6 | x4 G3 G | x8 | x8 | x8 | x6 (DG) | x8 | x8 | %15
 D2 x6 | x4 G3 |] %17
V:3
 [G,B,]2 | [G,D]2 [G,D]>[G,E] [G,D]2 ([G,D][G,C]) | [C,C]2 [C,C][C,C] [C,C]3 [C,G,] | %3
 [G,,G,]2 [B,,G,][D,G,] G,2 [G,D][B,D] | [B,D]2 [A,D][G,D] [D,D]2 ([G,B,][G,B,]) | %5
 [G,D]2 [G,D]>[G,E] [G,D]2 ([G,D][G,C]) | [C,C]2 [C,C][C,C] [C,C]3 [C,G,] | %7
 [G,,B,]2 [B,,D][D,D] [G,D] [G,D]2 [C,E] | [D,D]2 [D,D][D,C] [G,,G,B,]3 [G,B,] | %9
 [C,C]2 [C,C][C,C] [C,C] [C,C]2 [C,C] | [G,C]2 [G,B,][G,^A,] [G,B,]3 [G,D] | %11
 [D,D]2 [D,D][D,D] [D,D]2 [D,D][D,D] | [G,D]2 [E,A,][E,A,] [D,A,]2 [G,B,]2 | %13
 [G,D]2 [G,D]>[G,E] [G,D]2 [G,D][G,C] | [C,C]2 [C,C][C,C] [C,C]3 [C,G,] | %15
 [G,,B,]2 [B,,D][D,D] [G,D] [G,D]2 [C,E] | [D,D]2 [D,D][D,C] [G,,G,B,]3 |] %17
V:4
 x2 | x8 | x8 | x4 G,2 x2 | x8 | x8 | x8 | x8 | x8 | x8 | x8 | x8 | x8 | x8 | x8 | x8 | x7 |] %17

